!!!COM: Hugo Wolf
!!!CNT: Deutscher
!!!TXO: Deutsche 
!!!OTL: U2ber Nacht
!!!ONM: published posthumously
!!!ODT: 1878/
!!!LYR: Julius Sturm
!!!ENC: Brian Bice
!!!YOR: 65 Songs for voice and piano, International Music Company, 1960
!!NB: Vocal melody and text only encoded.
**kern	**silbe
*clefG2	*
*k[b-e-a-]	*
*M4/4	*
=2	=2
2r	.
4r	.
8r	.
{16b-	{U2-
16b-	-ber
=3	=3
4ee-	Nacht,
8b-	u2-
8b-	-ber
4g-	Nacht
4e-	kommt
=4	=4
4a-	still
4b-	dea
8cc-}	Leid,}
8r	.
{4cc-	{und
=5	=5
4b-	bist
8ddn	du
8ee-	er-
4ff	-wacht,
4ff	o
=6	=6
4gg-	trau-
8ff	-ri-
8ee-	-ge
4ddn}	Zeit,}
{4ee-	{du
=7	=7
4ee-	gru2-
8ee-	-ssest
8ee-	den
4ee-	da2m-
8ddn	-mern-
8ee-	-den
=8	=8
2ee-	Mor-
4a-}	-gen}
{8a-	{mit
8b-	|
=9	=9
4cc-	Wei-
4cc-	-nen
4cc-	und
8b-	mit
8cc-	|
=10	=10
2cc-	Sor-
4dn}	-gen.}
4r	.
=11	=11
2r	.
4r	.
8r	.
{16b-	{U2-
16b-	-ber
=12	=12
4ee-	Nacht,
8b-	u2-
8b-	-ber
4gn	Nacht
4e-	kommt
=13	=13
4a-	still
4b-	das
4cc}	Glu2ck,}
{4cc-	{und
=14	=14
4b-	bist
8dd	du
8ee-	er-
4ff	-wacht,
4ff#	o
=15	=15
4gg	se-
8ffn	-lig
8ee-	Ge-
4ffn}	-schick,}
{4b-	{der
=16	=16
4ee-	du2st-
4ee-	-re
4ee-	Traum
8ee-	ist
8ee-	zer-
=17	=17
2gg-	-ron-
4g-}	-nen,}
{8dd	{und
8ee-	|
=18	=18
[2ggn	Freu-
8ggn]	|
8g	-de
8a-	ist
8an	ge-
=19	=19
2b-	-won-
4e-}	-nen.}
4r	.
=23	=23
2r	.
4r	.
8r	.
{16e-	{U2-
16e-	-ber
=24	=24
4e-	Nacht,
8e-	u2-
8e-	-ber
4e-	Nacht
4e-	kommt
=25	=25
4g-	Freud
4g-	und
4f-}	Leid,}
{4a-	{und
=26	=26
4b-	eh
8a-	du's
8a-	ge-
4gn	-dacht,
4b-	ver-
=27	=27
4cc-	-las-
8cc-	-sen
8cc-	dich
4b-}	beid}
{4g	{und
=28	=28
4a-	ge-
8b-	-hen
8b-	dem
4cc-	Herrn
8dd-	zu
8ee-	|
=29	=29
2ff-	sa-
2f-}	-gen,}
=30	=30
{2ee-	{wie
4b-	du
12e-	sie
12f	|
12g-	ge-
=31	=31
2f	-tra-
4e-}	-gen.}
4r	.
*-	*-
